src/cmd/sc_graphicfiltersolarize.svg

<svg viewBox="0 0 16 16" xmlns="http://www.w3.org/2000/svg"><path d="m7.5 2v1h1v-1zm-3.375 1.4375c-.2479.21075-.47675.4396-.6875.6875l.71875.71875c.20379-.24694.44056-.48371.6875-.6875zm7.75 0-.71875.71875c.24694.20379.48371.44056.6875.6875l.71875-.71875c-.21074-.2479-.4396-.47675-.6875-.6875zm-3.875.5625c-2.20914 0-4 1.79086-4 4s1.79086 4 4 4 4-1.79086 4-4-1.79086-4-4-4zm-6 3.5v1h1v-1zm2.15625 3.65625-.71875.71875c.21075.2479.4396.47676.6875.6875l.71875-.71875c-.24694-.20379-.48371-.44056-.6875-.6875zm7.6875 0c-.20379.24694-.44056.48371-.6875.6875l.71875.71875c.2479-.21074.47676-.4396.6875-.6875zm-4.34375 1.84375v1h1v-1z" fill="#232629"/><path d="m14 2c-.55228 0-1 .44772-1 1s.44772 1 1 1 1-.44772 1-1-.44772-1-1-1zm0 3c-.55229 0-1 .44772-1 1s.44771 1 1 1 1-.44772 1-1-.44771-1-1-1zm0 3c-.55229 0-1 .44772-1 1s.44771 1 1 1 1-.44772 1-1-.44771-1-1-1z" fill="#e95420"/></svg>

<?xml version="1.0" encoding="UTF-8" standalone="no"?>
<svg
   xmlns:dc="http://purl.org/dc/elements/1.1/"
   xmlns:cc="http://creativecommons.org/ns#"
   xmlns:rdf="http://www.w3.org/1999/02/22-rdf-syntax-ns#"
   xmlns:svg="http://www.w3.org/2000/svg"
   xmlns="http://www.w3.org/2000/svg"
   xmlns:sodipodi="http://sodipodi.sourceforge.net/DTD/sodipodi-0.dtd"
   xmlns:inkscape="http://www.inkscape.org/namespaces/inkscape"
   viewBox="0 0 16 16"
   version="1.1"
   id="svg6"
   sodipodi:docname="sc_graphicfiltersolarize.svg"
   inkscape:version="0.92.4 (5da689c313, 2019-01-14)">
  <metadata
     id="metadata12">
    <rdf:RDF>
      <cc:Work
         rdf:about="">
        <dc:format>image/svg+xml</dc:format>
        <dc:type
           rdf:resource="http://purl.org/dc/dcmitype/StillImage" />
      </cc:Work>
    </rdf:RDF>
  </metadata>
  <defs
     id="defs10" />
  <sodipodi:namedview
     pagecolor="#ffffff"
     bordercolor="#666666"
     borderopacity="1"
     objecttolerance="10"
     gridtolerance="10"
     guidetolerance="10"
     inkscape:pageopacity="0"
     inkscape:pageshadow="2"
     inkscape:window-width="1920"
     inkscape:window-height="1011"
     id="namedview8"
     showgrid="true"
     inkscape:zoom="41.7193"
     inkscape:cx="8.1203622"
     inkscape:cy="8.5373627"
     inkscape:window-x="0"
     inkscape:window-y="32"
     inkscape:window-maximized="1"
     inkscape:current-layer="svg6">
    <inkscape:grid
       type="xygrid"
       id="grid822" />
  </sodipodi:namedview>
  <path
     id="path840"
     d="m 13,7.5 v 1 h 1 v -1 z M 7.5,13 v 1 h 1 v -1 z m 4.34375,-1.84375 c -0.20379,0.24694 -0.44056,0.48371 -0.6875,0.6875 L 11.875,12.5625 c 0.2479,-0.21074 0.47676,-0.4396 0.6875,-0.6875 z m -7.6875,0 L 3.4375,11.875 c 0.21075,0.2479 0.4396,0.47676 0.6875,0.6875 L 4.84375,11.84375 C 4.59681,11.63996 4.36004,11.40319 4.15625,11.15625 Z M 2,7.5 v 1 h 1 v -1 z M 8,4 C 5.79086,4 4,5.79086 4,8 c 0,2.20914 1.79086,4 4,4 2.20914,0 4,-1.79086 4,-4 C 12,5.79086 10.20914,4 8,4 Z m 3.875,-0.5625 -0.71875,0.71875 c 0.24694,0.20379 0.48371,0.44056 0.6875,0.6875 L 12.5625,4.125 C 12.35176,3.8771 12.1229,3.64825 11.875,3.4375 Z m -7.75,0 C 3.8771,3.64825 3.64825,3.8771 3.4375,4.125 L 4.15625,4.84375 C 4.36004,4.59681 4.59681,4.36004 4.84375,4.15625 Z M 7.5,2 v 1 h 1 V 2 Z"
     style="fill:#232629;fill-opacity:1" />
</svg>
